icons/document-person-outline.svg

<svg xmlns="http://www.w3.org/2000/svg" width="24" height="24" viewBox="0 0 24 24">
  <path d="M12,1 L12,8 C12,8.55228475 12.4477153,9 13,9 L20,9 L20,21 C20,22.1045695 19.1045695,23 18,23 L6,23 C4.8954305,23 4,22.1045695 4,21 L4,3 C4,1.8954305 4.8954305,1 6,1 L12,1 Z M10,3 L6,3 L6,21 L18,21 L18,11 L13,11 C11.4023191,11 10.0963391,9.75108004 10.0050927,8.17627279 L10,8 L10,3 Z M13,17 C14.5,17 15.5,17.9644661 15.5,19 C15.5,19.4722222 15.5,19.9444444 14.6575789,19.9954561 L14.5,20 L9.5,20 C8.5,20 8.5,19.5 8.5,19 C8.5,18.0076133 9.41840278,17.0804956 10.8151403,17.0049586 L11,17 L13,17 Z M12,12 C13.1045695,12 14,12.8954305 14,14 C14,15.1045695 13.1045695,16 12,16 C10.8954305,16 10,15.1045695 10,14 C10,12.8954305 10.8954305,12 12,12 Z M14,1 L20,7 L15,7 C14.4871642,7 14.0644928,6.61395981 14.0067277,6.11662113 L14,6 L14,1 Z"/>
</svg>

<svg xmlns="http://www.w3.org/2000/svg" viewBox="0 0 24 24">
  <path d="M12 1v7a1 1 0 0 0 1 1h7v12a2 2 0 0 1-2 2H6a2 2 0 0 1-2-2V3c0-1.1.9-2 2-2h6zm-2 2H6v18h12V11h-5a3 3 0 0 1-3-2.82V3zm3 14c1.5 0 2.5.96 2.5 2 0 .47 0 .94-.84 1H9.5c-1 0-1-.5-1-1 0-1 .92-1.92 2.32-2H13zm-1-5a2 2 0 1 1 0 4 2 2 0 0 1 0-4zm2-11 6 6h-5a1 1 0 0 1-1-.88V1z"/>
</svg>
